src/cmd/lc_extrusiontoggle.svg

<svg viewBox="0 0 24 24" xmlns="http://www.w3.org/2000/svg"><path d="m21 4-3 3h-14v13h14l3-3z" fill="#b3b3b3"/><path d="m6.96875 4-2.96875 2.96875v1.4375 11.59375h1 5 2 5 1l3-3v-12-.25-.40625-.34375h-13zm.4375 1h11.90625l-2 2h-.3125-11.59375zm12.59375.75v10.8125l-2 2v-10.8125zm-15 2.25h12v.75 10.25h-5v-5h2l-3-3-3 3h2v5h-5z" fill="#232629"/></svg>

<?xml version="1.0" encoding="UTF-8" standalone="no"?>
<svg
   xmlns:dc="http://purl.org/dc/elements/1.1/"
   xmlns:cc="http://creativecommons.org/ns#"
   xmlns:rdf="http://www.w3.org/1999/02/22-rdf-syntax-ns#"
   xmlns:svg="http://www.w3.org/2000/svg"
   xmlns="http://www.w3.org/2000/svg"
   xmlns:sodipodi="http://sodipodi.sourceforge.net/DTD/sodipodi-0.dtd"
   xmlns:inkscape="http://www.inkscape.org/namespaces/inkscape"
   viewBox="0 0 24 24"
   version="1.1"
   id="svg6"
   sodipodi:docname="lc_extrusiontoggle.svg"
   inkscape:version="0.92.5 (2060ec1f9f, 2020-04-08)"
   inkscape:export-filename="/home/jupiter007/Libreoffice yaru theme fullcolor/build/cmd/lc_extrusiontoggle.png"
   inkscape:export-xdpi="95"
   inkscape:export-ydpi="95">
  <metadata
     id="metadata12">
    <rdf:RDF>
      <cc:Work
         rdf:about="">
        <dc:format>image/svg+xml</dc:format>
        <dc:type
           rdf:resource="http://purl.org/dc/dcmitype/StillImage" />
      </cc:Work>
    </rdf:RDF>
  </metadata>
  <defs
     id="defs10" />
  <sodipodi:namedview
     pagecolor="#ffffff"
     bordercolor="#666666"
     borderopacity="1"
     objecttolerance="10"
     gridtolerance="10"
     guidetolerance="10"
     inkscape:pageopacity="0"
     inkscape:pageshadow="2"
     inkscape:window-width="1920"
     inkscape:window-height="1011"
     id="namedview8"
     showgrid="true"
     inkscape:zoom="27.812867"
     inkscape:cx="12.943089"
     inkscape:cy="10.834999"
     inkscape:window-x="1920"
     inkscape:window-y="32"
     inkscape:window-maximized="1"
     inkscape:current-layer="svg6">
    <inkscape:grid
       type="xygrid"
       id="grid822" />
  </sodipodi:namedview>
  <path
     d="m21 4-3 3h-14v13h14l3-3z"
     fill="#b3b3b3"
     id="path2" />
  <path
     d="M 6.96875,4 4,6.96875 V 8.40625 20 h 1 5 2 5 1 l 3,-3 V 5 4.75 4.34375 4 H 8 Z m 0.4375,1 H 19.3125 l -2,2 H 17 5.40625 Z M 20,5.75 v 10.8125 l -2,2 V 7.75 Z M 5,8 H 17 V 8.75 19 H 12 10 5 Z"
     id="path4"
     inkscape:connector-curvature="0"
     style="fill:#1463a5;fill-opacity:1"
     sodipodi:nodetypes="ccccccccccccccccccccccccccccccccccc" />
  <path
     sodipodi:nodetypes="cccccccc"
     style="fill:#000000;stroke:#000000;opacity:0.6;stroke-width:2;stroke-miterlimit:4;stroke-dasharray:none;stroke-linejoin:round"
     inkscape:connector-curvature="0"
     d="m 12,19 v -5 h 2 l -3,-3 -3,3 h 2 v 5 z"
     id="path828" />
  <path
     id="path824"
     d="m 12,19 v -5 h 2 l -3,-3 -3,3 h 2 v 5 z"
     inkscape:connector-curvature="0"
     style="fill:#ffffff"
     sodipodi:nodetypes="cccccccc" />
  <path
     style="fill:#ffffff;stroke:none;stroke-width:1px;stroke-linecap:butt;stroke-linejoin:miter;stroke-opacity:1;fill-opacity:1"
     d="m 5.40625,7 2,-2 H 19.3125 l -2,2 H 5.40625"
     id="path826"
     inkscape:connector-curvature="0" />
</svg>
